packages/flat-components/src/components/ClassroomPage/ScenesController/image/add-scene.svg

<?xml version="1.0" encoding="UTF-8"?>
<svg width="24px" height="24px" viewBox="0 0 24 24" version="1.1" xmlns="http://www.w3.org/2000/svg" xmlns:xlink="http://www.w3.org/1999/xlink">
    <title>矩形备份 24</title>
    <g id="多窗口" stroke="none" stroke-width="1" fill="none" fill-rule="evenodd">
        <g id="pages备份" fill="#5D5D5D" fill-rule="nonzero">
            <path d="M12,7.5 C12.2761424,7.5 12.5,7.72385763 12.5,8 C12.5,8.24545989 12.3231248,8.44960837 12.0898756,8.49194433 L12,8.5 L8,8.5 C7.22030388,8.5 6.57955132,9.09488808 6.50686658,9.85553999 L6.5,10 L6.5,16 C6.5,16.7796961 7.09488808,17.4204487 7.85553999,17.4931334 L8,17.5 L14,17.5 C14.7796961,17.5 15.4204487,16.9051119 15.4931334,16.14446 L15.5,16 L15.5,12 C15.5,11.7238576 15.7238576,11.5 16,11.5 C16.2454599,11.5 16.4496084,11.6768752 16.4919443,11.9101244 L16.5,12 L16.5,16 C16.5,17.3254834 15.4684641,18.4100387 14.1643757,18.4946823 L14,18.5 L8,18.5 C6.6745166,18.5 5.58996133,17.4684641 5.50531768,16.1643757 L5.5,16 L5.5,10 C5.5,8.6745166 6.53153594,7.58996133 7.83562431,7.50531768 L8,7.5 L12,7.5 Z M16,5.5 C16.2454599,5.5 16.4496084,5.67687516 16.4919443,5.91012437 L16.5,6 L16.5,7.5 L18,7.5 C18.2761424,7.5 18.5,7.72385763 18.5,8 C18.5,8.24545989 18.3231248,8.44960837 18.0898756,8.49194433 L18,8.5 L16.5,8.5 L16.5,10 C16.5,10.2761424 16.2761424,10.5 16,10.5 C15.7545401,10.5 15.5503916,10.3231248 15.5080557,10.0898756 L15.5,10 L15.5,8.5 L14,8.5 C13.7238576,8.5 13.5,8.27614237 13.5,8 C13.5,7.75454011 13.6768752,7.55039163 13.9101244,7.50805567 L14,7.5 L15.5,7.5 L15.5,6 C15.5,5.72385763 15.7238576,5.5 16,5.5 Z" id="形状"></path>
        </g>
    </g>
</svg>

<svg width="24" height="24" xmlns="http://www.w3.org/2000/svg"><path d="M12 7.5a.5.5 0 0 1 .09.992L12 8.5H8a1.5 1.5 0 0 0-1.493 1.356L6.5 10v6a1.5 1.5 0 0 0 1.356 1.493L8 17.5h6a1.5 1.5 0 0 0 1.493-1.356L15.5 16v-4a.5.5 0 0 1 .992-.09l.008.09v4a2.5 2.5 0 0 1-2.336 2.495L14 18.5H8a2.5 2.5 0 0 1-2.495-2.336L5.5 16v-6a2.5 2.5 0 0 1 2.336-2.495L8 7.5h4Zm4-2a.5.5 0 0 1 .492.41L16.5 6v1.5H18a.5.5 0 0 1 .09.992L18 8.5h-1.5V10a.5.5 0 0 1-.992.09L15.5 10V8.5H14a.5.5 0 0 1-.09-.992L14 7.5h1.5V6a.5.5 0 0 1 .5-.5Z" fill="#5D5D5D"/></svg>
